assets/badge-free.svg

<?xml version="1.0" encoding="UTF-8"?>
<!DOCTYPE svg PUBLIC "-//W3C//DTD SVG 1.1//EN" "http://www.w3.org/Graphics/SVG/1.1/DTD/svg11.dtd">
<!-- Creator: CorelDRAW 2017 -->
<svg xmlns="http://www.w3.org/2000/svg" xml:space="preserve" width="100%" height="100%" version="1.1" style="shape-rendering:geometricPrecision; text-rendering:geometricPrecision; image-rendering:optimizeQuality; fill-rule:evenodd; clip-rule:evenodd"
viewBox="0 0 2.35567 1.86682"
 xmlns:xlink="http://www.w3.org/1999/xlink">
 <defs>
  <style type="text/css">
   <![CDATA[
    .fil0 {fill:#D2AE6D}
    .fil1 {fill:#FE4F32}
    .fil2 {fill:#FEFEFE;fill-rule:nonzero}
   ]]>
  </style>
 </defs>
 <g id="Camada_x0020_1">
  <metadata id="CorelCorpID_0Corel-Layer"/>
  <path class="fil0" d="M0.41668 1.86682c-0.18574,-0.17612 -0.09999,-0.31133 -0.08579,-0.51784 0.05912,0.21115 0.0223,0.3108 0.08579,0.51784zm0 0c-0.17218,-0.18835 -0.28109,-0.20607 -0.39427,-0.45524 0.02388,0.27112 0.195,0.39548 0.39427,0.45524zm-0.14899 -0.22683c-0.13101,-0.21992 -0.02119,-0.31163 0.04853,-0.50656 -0.00039,0.21927 -0.05349,0.29006 -0.04853,0.50656zm0 0c-0.11464,-0.22801 -0.21543,-0.27273 -0.25676,-0.54327 -0.05057,0.26745 0.08118,0.43169 0.25676,0.54327zm-0.09076 -0.24136c-0.06388,-0.24786 0.07579,-0.32387 0.19747,-0.49132 -0.06203,0.2103 -0.14135,0.2822 -0.19747,0.49132zm0 0c-0.04589,-0.25101 -0.12562,-0.35065 -0.08921,-0.62188 -0.12374,0.24243 -0.04791,0.46544 0.08921,0.62188zm-0.01874 -0.2652c0.00597,-0.25591 0.15338,-0.29263 0.31606,-0.42067 -0.11692,0.18551 -0.20514,0.23469 -0.31606,0.42067zm0 0c0.02415,-0.25404 -0.01549,-0.35212 0.09335,-0.60322 -0.18501,0.19962 -0.18273,0.41537 -0.09335,0.60322zm0.05962 -0.27403c0.05815,-0.21924 0.19272,-0.22037 0.35939,-0.29695 -0.13913,0.13557 -0.22531,0.15968 -0.35939,0.29695zm0.10894 -0.2062c0.04819,-0.22162 0.19585,-0.22456 0.38008,-0.36329 -0.12963,0.21807 -0.21211,0.18163 -0.38008,0.36329zm-0.10671 0.20705c0.08137,-0.21097 0.07999,-0.30162 0.23288,-0.48981 -0.20557,0.12606 -0.26418,0.30816 -0.23288,0.48981z"/>
  <path class="fil0" d="M1.93898 1.86682c0.18576,-0.17612 0.10001,-0.31133 0.0858,-0.51784 -0.05911,0.21115 -0.0223,0.3108 -0.0858,0.51784zm0 0c0.17221,-0.18835 0.28111,-0.20607 0.39428,-0.45524 -0.02388,0.27112 -0.195,0.39548 -0.39428,0.45524zm0.149 -0.22683c0.131,-0.21992 0.02117,-0.31163 -0.04853,-0.50656 0.0004,0.21927 0.05347,0.29006 0.04853,0.50656zm0 0c0.11462,-0.22801 0.21542,-0.27273 0.25676,-0.54327 0.05057,0.26745 -0.08118,0.43169 -0.25676,0.54327zm0.09076 -0.24136c0.0639,-0.24786 -0.07577,-0.32387 -0.19748,-0.49132 0.06206,0.2103 0.14136,0.2822 0.19748,0.49132zm0.01537 0c0.0459,-0.25101 0.12561,-0.35065 0.08921,-0.62188 0.12373,0.24243 0.04792,0.46544 -0.08921,0.62188zm0.00335 -0.2652c-0.00594,-0.25591 -0.15337,-0.29263 -0.31602,-0.42067 0.11692,0.18551 0.20512,0.23469 0.31602,0.42067zm0 0c-0.02415,-0.25404 0.0155,-0.35212 -0.09332,-0.60322 0.185,0.19962 0.18271,0.41537 0.09332,0.60322zm-0.05958 -0.27403c-0.05816,-0.21924 -0.19276,-0.22037 -0.3594,-0.29695 0.13913,0.13557 0.22531,0.15968 0.3594,0.29695zm-0.10894 -0.2062c-0.04821,-0.22162 -0.19588,-0.22456 -0.3801,-0.36329 0.12964,0.21807 0.21211,0.18163 0.3801,0.36329zm0.10667 0.20705c-0.08134,-0.21097 -0.07998,-0.30162 -0.23287,-0.48981 0.20559,0.12606 0.2642,0.30816 0.23287,0.48981z"/>
  <path class="fil0" d="M1.1934 0l0.14987 0.08653 0.14986 0.08652 0 0.17305 0 0.17304 -0.14986 0.08652 -0.14987 0.08653 -0.14986 -0.08653 -0.14986 -0.08652 0 -0.17304 0 -0.17305 0.14986 -0.08652 0.14986 -0.08653zm0 0.03322l-0.27095 0.15644 0 0.31287 0.27095 0.15644 0.27096 -0.15644 0 -0.31287 -0.27096 -0.15644z"/>
  <path class="fil1" d="M1.34909 0.15288c-0.05722,0.0493 -0.08394,0.10373 -0.12893,0.15027 -0.02264,-0.0124 -0.0744,-0.07254 -0.0983,-0.09472l-0.10785 0.03639c0.00818,0.03265 0.16703,0.20672 0.22159,0.27758 0.00877,0.01139 0.01109,0.00574 0.0186,-0.00316 -0.00919,-0.07493 0.11376,-0.27462 0.16727,-0.33018 0.08145,-0.08457 0.12445,-0.11853 0.23052,-0.17559 0.00069,-0.00046 0.00177,-0.00144 0.00233,-0.00184 0.00057,-0.00041 0.00154,-0.00131 0.00232,-0.00197 -0.11945,-0.00326 -0.22116,0.0688 -0.30755,0.14322z"/>
  <path class="fil2" d="M0.56296 1.14463l0.10139 0 0 -0.15531 0.13679 0 0 -0.08482 -0.13679 0 0 -0.08661 0.15235 0 0 -0.08542 -0.25374 0 0 0.41216zm0.2945 0l0.10139 0 0 -0.15292 0.0692 0 0.04667 0.15292 0.10567 0 -0.05525 -0.16964 0.0472 -0.05197 0 -0.13082 -0.05418 -0.05973 -0.2607 0 0 0.41216zm0.10139 -0.23057l0 -0.10454 0.09709 0 0.01448 0.01613 0 0.07168 -0.01448 0.01673 -0.09709 0zm0.25908 0.23057l0.26125 0 0 -0.08542 -0.15986 0 0 -0.08184 0.14322 0 0 -0.08541 -0.14322 0 0 -0.07407 0.15878 0 0 -0.08542 -0.26017 0 0 0.41216zm0.3122 0l0.26124 0 0 -0.08542 -0.15985 0 0 -0.08184 0.14322 0 0 -0.08541 -0.14322 0 0 -0.07407 0.15877 0 0 -0.08542 -0.26016 0 0 0.41216z"/>
  <path class="fil2" d="M0.5646 1.60953l0.15385 0 0.0304 -0.03384 0 -0.06205 -0.02565 -0.02855 0.02501 -0.0275 0 -0.05746 -0.03039 -0.03384 -0.15322 0 0 0.24324zm0.06015 -0.04618l0 -0.05499 0.05666 0 0.00729 0.00846 0 0.03772 -0.00792 0.00881 -0.05603 0zm0 -0.10047l0 -0.05076 0.05571 0 0.0076 0.00881 0 0.03384 -0.00728 0.00811 -0.05603 0zm0.13644 0.14665l0.05698 0 0.00981 -0.04759 0.06553 0 0.00981 0.04759 0.06237 0 -0.05762 -0.24324 -0.08958 0 -0.0573 0.24324zm0.10004 -0.20481l0.02215 0.10787 -0.04496 0 0.02281 -0.10787zm0.12283 0.20481l0.05318 0 0 -0.14489 0.06901 0.14489 0.06142 0 0 -0.24324 -0.05319 0 0 0.14277 -0.06965 -0.14277 -0.06077 0 0 0.24324zm0.21843 0l0.05318 0 0 -0.14489 0.06901 0.14489 0.06142 0 0 -0.24324 -0.05318 0 0 0.14277 -0.06965 -0.14277 -0.06078 0 0 0.24324zm0.21843 0l0.15418 0 0 -0.05041 -0.09435 0 0 -0.0483 0.08453 0 0 -0.05041 -0.08453 0 0 -0.04371 0.09371 0 0 -0.05041 -0.15354 0 0 0.24324zm0.18425 0l0.15069 0 0.03387 -0.03737 0 -0.1685 -0.03387 -0.03737 -0.15069 0 0 0.24324zm0.05983 -0.049l0 -0.14524 0.05382 0 0.01076 0.01199 0 0.12126 -0.01076 0.01199 -0.05382 0z"/>
  <path class="fil2" d="M0.86003 1.32212l0.03017 0 0 -0.04621 0.0407 0 0 -0.02523 -0.0407 0 0 -0.02577 0.04533 0 0 -0.02542 -0.0755 0 0 0.12263zm0.15236 0l0.03017 0 0 -0.0455 0.02059 0 0.01388 0.0455 0.03144 0 -0.01643 -0.05047 0.01404 -0.01546 0 -0.03892 -0.01612 -0.01778 -0.07757 0 0 0.12263zm0.03017 -0.0686l0 -0.0311 0.02889 0 0.00431 0.0048 0 0.02132 -0.00431 0.00498 -0.02889 0zm0.15715 0.0686l0.06032 0 0.01708 -0.01884 0 -0.08495 -0.01708 -0.01884 -0.06032 0 -0.01692 0.01884 0 0.08495 0.01692 0.01884zm0.01883 -0.0247l-0.00543 -0.00605 0 -0.06113 0.00543 -0.00604 0.02282 0 0.00542 0.00604 0 0.06113 -0.00542 0.00605 -0.02282 0zm0.13927 0.0247l0.02554 0 0 -0.09739 0.02394 0.09739 0.03367 0 0.02458 -0.09739 0 0.09739 0.02873 0 0 -0.12263 -0.04581 0 -0.0225 0.09171 -0.02235 -0.09171 -0.0458 0 0 0.12263z"/>
  <path class="fil2" d="M0.63762 1.80065l0.0632 0 0.01658 -0.01847 0 -0.04359 -0.01409 -0.0157 -0.04728 0 -0.00248 -0.00295 0 -0.01774 0.00331 -0.00387 0.02522 0 0.00364 0.00406 0 0.01053 0.03135 0 0 -0.0218 -0.01609 -0.01791 -0.06236 0 -0.01659 0.01847 0 0.04285 0.0141 0.01588 0.04728 0 0.00248 0.00277 0 0.01847 -0.00332 0.0037 -0.02603 0 -0.00366 -0.00388 0 -0.01053 -0.03135 0 0 0.02179 0.01609 0.01792zm0.11212 0l0.06038 0 0.01758 -0.01958 0 -0.10786 -0.03151 0 0 0.09456 -0.00564 0.00628 -0.0214 0 -0.00564 -0.00628 0 -0.09456 -0.03151 0 0 0.10786 0.01774 0.01958zm0.09587 0l0.08061 0 0.01592 -0.01773 0 -0.03251 -0.01343 -0.01496 0.0131 -0.01441 0 -0.0301 -0.01592 -0.01773 -0.08028 0 0 0.12744zm0.03152 -0.0242l0 -0.02881 0.02968 0 0.00382 0.00443 0 0.01977 -0.00415 0.00461 -0.02935 0zm0 -0.05264l0 -0.02659 0.02919 0 0.00398 0.00462 0 0.01773 -0.00382 0.00424 -0.02935 0zm0.09421 0.07684l0.06319 0 0.01659 -0.01847 0 -0.04359 -0.0141 -0.0157 -0.04727 0 -0.00249 -0.00295 0 -0.01774 0.00331 -0.00387 0.02522 0 0.00365 0.00406 0 0.01053 0.03134 0 0 -0.0218 -0.01609 -0.01791 -0.06236 0 -0.01658 0.01847 0 0.04285 0.0141 0.01588 0.04727 0 0.00249 0.00277 0 0.01847 -0.00333 0.0037 -0.02603 0 -0.00366 -0.00388 0 -0.01053 -0.03135 0 0 0.02179 0.0161 0.01792zm0.11859 0l0.03151 0 0 -0.09937 0.03069 0 0 -0.02807 -0.09272 0 0 0.02807 0.03052 0 0 0.09937zm0.05706 0l0.02985 0 0.00515 -0.02493 0.03433 0 0.00514 0.02493 0.03268 0 -0.03019 -0.12744 -0.04694 0 -0.03002 0.12744zm0.05241 -0.10731l0.01161 0.05652 -0.02355 0 0.01194 -0.05652zm0.06436 0.10731l0.02786 0 0 -0.07591 0.03616 0.07591 0.03218 0 0 -0.12744 -0.02787 0 0 0.0748 -0.03649 -0.0748 -0.03184 0 0 0.12744zm0.13036 0l0.06154 0 0.01775 -0.01958 0 -0.02715 -0.03152 0 0 0.01607 -0.00514 0.00554 -0.02306 0 -0.00564 -0.00609 0 -0.06428 0.00564 -0.00628 0.02306 0 0.00514 0.00573 0 0.01496 0.03152 0 0 -0.02678 -0.01775 -0.01958 -0.06154 0 -0.01758 0.01958 0 0.08828 0.01758 0.01958zm0.09388 0l0.08078 0 0 -0.02641 -0.04943 0 0 -0.02531 0.04428 0 0 -0.02641 -0.04428 0 0 -0.0229 0.0491 0 0 -0.02641 -0.08045 0 0 0.12744zm0.10998 0l0.06319 0 0.01659 -0.01847 0 -0.04359 -0.0141 -0.0157 -0.04728 0 -0.00248 -0.00295 0 -0.01774 0.00331 -0.00387 0.02522 0 0.00364 0.00406 0 0.01053 0.03135 0 0 -0.0218 -0.01609 -0.01791 -0.06236 0 -0.01658 0.01847 0 0.04285 0.01409 0.01588 0.04728 0 0.00248 0.00277 0 0.01847 -0.00332 0.0037 -0.02603 0 -0.00366 -0.00388 0 -0.01053 -0.03135 0 0 0.02179 0.0161 0.01792z"/>
 </g>
</svg>

<svg xmlns="http://www.w3.org/2000/svg" width="100%" height="100%" fill-rule="evenodd" clip-rule="evenodd" image-rendering="optimizeQuality" shape-rendering="geometricPrecision" text-rendering="geometricPrecision" version="1.1" viewBox="0 0 2.3557 1.8668" xml:space="preserve">
  <path fill="#d2ae6d" d="M.4167 1.8668c-.1858-.1761-.1-.3113-.0858-.5178.0591.2111.0223.3108.0858.5178zm0 0c-.1722-.1883-.2811-.206-.3943-.4552.0239.2711.195.3955.3943.4552zM.2677 1.64c-.131-.22-.0212-.3116.0485-.5066-.0004.2193-.0535.29-.0485.5066zm0 0C.153 1.412.0523 1.3673.0109 1.0967c-.0505.2675.0812.4317.2568.5433zm-.0908-.2414C.113 1.1508.2527 1.0748.3744.9073c-.062.2103-.1414.2822-.1975.4913zm0 0C.131 1.1476.0513 1.048.0877.7767c-.1237.2425-.0479.4655.0892.622zm-.0187-.2652C.1642.8775.3116.8408.4742.7128c-.1169.1855-.205.2347-.316.4206zm0 0C.1823.8794.1427.7814.2515.5302c-.185.1996-.1827.4154-.0933.6032zm.0596-.274C.276.6402.4105.639.5772.5624.4381.698.3519.7222.2178.8595zm.109-.2062C.3748.4316.5225.4286.7067.2899c-.1296.218-.212.1816-.38.3633zM.22.8602C.3014.6492.3.5586.453.3704.2472.4965.1886.6786.22.8602zm1.719 1.0066c.1857-.1761.1-.3113.0858-.5178-.0591.2111-.0223.3108-.0858.5178zm0 0c.1722-.1883.281-.206.3943-.4552-.024.2711-.195.3955-.3943.4552zm.149-.2268c.131-.22.0211-.3116-.0486-.5066.0004.2193.0535.29.0486.5066zm0 0c.1146-.228.2154-.2727.2567-.5433.0506.2675-.0811.4317-.2567.5433zm.0907-.2414c.064-.2478-.0757-.3238-.1974-.4913.062.2103.1413.2822.1974.4913zm.0154 0c.046-.251.1256-.3506.0892-.6219.1237.2425.048.4655-.0892.622zm.0034-.2652c-.006-.2559-.1534-.2926-.316-.4206.1169.1855.205.2346.316.4206zm0 0c-.0242-.254.0155-.352-.0934-.6032.185.1996.1828.4154.0934.6032zm-.0596-.274C2.0797.6402 1.945.639 1.7785.5624c.1391.1356.2253.1597.3594.297zm-.109-.2062c-.0482-.2216-.1958-.2246-.38-.3633.1296.218.212.1816.38.3633zm.1067.207c-.0813-.211-.08-.3016-.2329-.4898.2056.1261.2642.3082.233.4899zM1.1934 0l.1499.0865.1498.0866v.346l-.1498.0866-.1499.0865-.1499-.0865L.8937.519v-.346l.1498-.0866L1.1934 0zm0 .0332l-.271.1565v.3128l.271.1565.271-.1565V.1897l-.271-.1565z"/>
  <path fill="#fe4f32" d="M1.349.1529c-.0571.0493-.0839.1037-.1288.1502-.0227-.0124-.0744-.0725-.0983-.0947L1.014.2448c.0082.0327.167.2067.2216.2776.0088.0114.011.0057.0186-.0032-.0092-.0749.1138-.2746.1673-.3301.0814-.0846.1244-.1186.2305-.1756l.0023-.0019.0023-.002c-.1194-.0032-.2211.0689-.3075.1433z"/>
  <path fill="#fefefe" fill-rule="nonzero" d="M.563 1.1446h.1014V.9893H.801V.9045H.6643V.8179h.1524V.7325H.563v.4121zm.2945 0h.1013V.9917h.0692l.0467.153h.1057L1.125.975l.0472-.052V.7922L1.1182.7325H.8575v.4121zM.9588.9141V.8095h.0971l.0145.0162v.0716L1.056.9141H.959zm.2591.2305h.2613v-.0854h-.1599V.9774h.1432V.892h-.1432V.8179h.1588V.7325h-.2602v.4121zm.3122 0h.2613v-.0854h-.1599V.9774h.1432V.892h-.1432V.8179h.1588V.7325H1.53v.4121zm-.9655.465h.1538l.0304-.034v-.062l-.0256-.0285.025-.0275V1.4l-.0304-.0338H.5646v.2432zm.0602-.0463v-.055h.0566l.0073.0085v.0377l-.008.0088h-.056zm0-.1004V1.412h.0557l.0076.0088v.0339l-.0073.008h-.056zm.1364.1466h.057L.828 1.562h.0655l.0098.0476h.0624L.908 1.3663H.8185l-.0573.2432zm.1-.2048l.0222.1079h-.045l.0228-.1079zm.1229.2048h.0531v-.1449l.069.145h.0615v-.2433h-.0532v.1428l-.0697-.1428H.9841v.2432zm.2184 0h.0532v-.1449l.069.145h.0614v-.2433h-.0532v.1428l-.0696-.1428h-.0608v.2432zm.2184 0h.1542v-.0504h-.0943v-.0483h.0845v-.0504h-.0845v-.0437h.0937v-.0504h-.1536v.2432zm.1843 0h.1507l.0338-.0373v-.1685l-.0338-.0374h-.1507v.2432zm.0598-.049v-.1452h.0538l.0108.012v.1212l-.0108.012H1.665zM.86 1.3221h.0302V1.276h.0407v-.0252H.8902v-.0258h.0453v-.0254H.86v.1226zm.1524 0h.0302v-.0455h.0205l.014.0455h.0314l-.0165-.0505.014-.0154v-.039l-.016-.0177h-.0776v.1226zm.0302-.0686v-.031h.0288l.0044.0047v.0213l-.0044.005h-.0288zm.1571.0686H1.26l.0171-.0188v-.085l-.017-.0188h-.0604l-.017.0188v.085l.017.0188zm.0188-.0247l-.0054-.006v-.0612l.0054-.006h.0229l.0054.006v.0612l-.0054.006h-.0229zm.1393.0247h.0256v-.0974l.0239.0974h.0337l.0245-.0974v.0974h.0288v-.1226h-.0458l-.0225.0917-.0224-.0917h-.0458v.1226zm-.7202.4786h.0632l.0166-.0185v-.0436l-.014-.0157H.656l-.0025-.003v-.0177l.0034-.0039H.682l.0036.004v.0106h.0314v-.0218L.701 1.6732H.6386l-.0166.0185v.0428l.0141.016h.0473l.0025.0027v.0184l-.0033.0037h-.026l-.0037-.0038v-.0106H.6215v.0218l.0161.018zm.1121 0h.0604l.0176-.0196v-.1079H.7962v.0946l-.0057.0063H.7692l-.0056-.0063v-.0946H.732v.1079l.0177.0196zm.096 0h.0805l.016-.0178v-.0325l-.0135-.015.0131-.0144v-.03l-.016-.0178H.8457v.1274zm.0314-.0242v-.0289h.0297l.0038.0045v.0197l-.0041.0047H.877zm0-.0527v-.0266h.0292l.004.0046v.0178l-.0038.0042H.877zm.0942.0769h.0632l.0166-.0185v-.0436l-.014-.0157H.9897l-.0025-.003v-.0177l.0033-.0039h.0252l.0036.004v.0106h.0314v-.0218l-.0161-.0179H.9723l-.0166.0185v.0428l.0141.016h.0473l.0025.0027v.0184l-.0033.0037h-.026l-.0037-.0038v-.0106H.9552v.0218l.0161.018zm.1186 0h.0315v-.0994h.0307v-.028h-.0927v.028H1.09v.0994zm.057 0h.03l.005-.025h.0344l.0052.025h.0326l-.0301-.1275h-.047l-.03.1275zm.0525-.1074l.0116.0566h-.0235l.0119-.0566zm.0644.1074h.0278v-.076l.0362.076H1.36v-.1275h-.028v.0748l-.0364-.0748h-.0318v.1275zm.1303 0h.0616l.0177-.0196v-.0272H1.442v.016l-.0051.0056h-.0231l-.0056-.006v-.0643l.0056-.0063h.023l.0052.0057v.015h.0315v-.0268l-.0177-.0196H1.394l-.0176.0196v.0883l.0176.0196zm.0939 0h.0808v-.0265h-.0494V1.749h.0442v-.0264h-.0442v-.0229h.049v-.0264H1.488v.1275zm.11 0h.0632l.0166-.0185v-.0436l-.0141-.0157h-.0473l-.0025-.003v-.0177l.0033-.0039h.0252l.0037.004v.0106h.0313v-.0218l-.016-.0179H1.599l-.0166.0185v.0428l.014.016h.0474l.0024.0027v.0184l-.0033.0037h-.026l-.0037-.0038v-.0106H1.582v.0218l.016.018z"/>
</svg>
